dist/assets/img/solution-2.svg

<svg width="135" height="142" viewBox="0 0 135 142" fill="fff" xmlns="http://www.w3.org/2000/svg">
<g opacity="0.5">
<path d="M71.49 84.8058C71.205 84.8058 70.95 84.6323 70.845 84.3325C70.815 84.2536 70.7849 84.1747 70.7549 84.0959C70.5599 83.591 70.365 83.1176 70.17 82.6601C69.3 80.6563 68.265 78.7314 67.065 76.9327C66.855 76.6014 66.93 76.1596 67.23 75.9387C67.545 75.7178 67.965 75.7967 68.175 76.1123C69.42 77.9898 70.515 79.9778 71.4 82.0605C71.61 82.5338 71.82 83.0387 72 83.5436C72.03 83.6225 72.075 83.7329 72.12 83.8592C72.255 84.2378 72.06 84.6481 71.715 84.7743C71.655 84.7901 71.565 84.8058 71.49 84.8058Z" fill="white"/>
<path d="M38.82 135.358C19.065 135.358 3 118.46 3 97.6805C3 78.1003 16.95 61.9754 35.46 60.1767C35.475 60.1767 35.49 60.1767 35.505 60.1767C35.55 60.1767 35.595 60.1609 35.64 60.1609C36.015 60.1609 36.315 60.4765 36.315 60.8867C36.315 61.2654 36.0301 61.581 35.6851 61.5967C35.6701 61.5967 35.67 61.5967 35.655 61.5967C35.64 61.5967 35.6101 61.5967 35.5951 61.5967C17.7901 63.3165 4.35004 78.8261 4.35004 97.6805C4.35004 117.671 19.8 133.922 38.805 133.922C50.025 133.922 60.585 128.132 67.035 118.46C67.065 118.428 67.095 118.381 67.125 118.349C67.5 117.955 68.295 118.255 68.295 118.854C68.295 118.996 68.25 119.123 68.19 119.233C68.175 119.265 68.1451 119.312 68.1151 119.343C61.4251 129.362 50.475 135.358 38.82 135.358Z" fill="white"/>
<path d="M96.42 135.358C84.765 135.358 73.815 129.362 67.11 119.328C67.095 119.296 67.065 119.28 67.05 119.249C66.975 119.138 66.93 118.996 66.93 118.838C66.93 118.239 67.725 117.939 68.085 118.334C68.115 118.365 68.145 118.412 68.175 118.444C74.625 128.132 85.17 133.906 96.405 133.906C115.395 133.906 130.86 117.655 130.86 97.6647C130.86 78.8102 117.42 63.2849 99.585 61.5809C99.57 61.5809 99.5551 61.5809 99.5251 61.5809C99.2401 61.5809 98.985 61.3916 98.88 61.1076C98.76 60.7289 98.94 60.3187 99.3 60.1925C99.405 60.1609 99.555 60.1452 99.675 60.1609C99.72 60.1609 99.75 60.1609 99.78 60.1767C118.29 61.9912 132.24 78.1003 132.24 97.6805C132.24 118.46 116.175 135.358 96.42 135.358Z" fill="white"/>
<path d="M63.75 84.6954C63.69 84.6954 63.63 84.6796 63.57 84.6638C63.225 84.5376 63 84.222 63.12 83.8591C63.15 83.7645 63.195 83.6698 63.225 83.5752C63.39 83.1018 63.615 82.5812 63.84 82.0447C64.74 79.9778 65.82 77.974 67.065 76.1122C67.29 75.7809 67.7101 75.7178 68.0101 75.9387C68.3101 76.1596 68.385 76.6172 68.175 76.9327C66.975 78.7314 65.94 80.6563 65.07 82.6443C64.845 83.1492 64.6501 83.6383 64.4551 84.1432C64.3501 84.4587 64.05 84.6954 63.75 84.6954Z" fill="white"/>
<path d="M99.57 61.6756C99.465 61.6756 99.375 61.6599 99.285 61.6125C98.94 61.439 98.805 61.0287 98.955 60.6658L98.9701 60.6501C98.9851 60.5554 99.015 60.5081 99.045 60.4607C101.055 55.7747 102.075 50.7732 102.075 45.5665C102.075 25.5761 86.625 9.32494 67.62 9.32494C48.615 9.32494 33.165 25.5761 33.165 45.5665C33.165 50.7574 34.185 55.7589 36.195 60.4449C36.21 60.4765 36.2251 60.508 36.2401 60.5396C36.3901 60.8078 36.345 61.1707 36.12 61.3916C35.85 61.6756 35.415 61.6756 35.16 61.3916C35.115 61.3443 35.07 61.2812 35.04 61.2181C35.025 61.1865 34.965 61.0761 34.95 61.0445C32.85 56.1534 31.8 50.9467 31.8 45.5665C31.8 24.7872 47.865 7.88916 67.62 7.88916C87.375 7.88916 103.44 24.7872 103.44 45.5665C103.44 51.0098 102.36 56.2481 100.245 61.155C100.245 61.1707 100.23 61.1865 100.23 61.2023C100.215 61.2338 100.215 61.2654 100.2 61.2812C100.065 61.5178 99.825 61.6756 99.57 61.6756ZM36.285 60.6343C36.3 60.6974 36.315 60.7763 36.315 60.8394C36.315 60.7605 36.3 60.6974 36.285 60.6343Z" fill="white"/>
<path d="M73.125 82.7705C72.945 82.7705 72.78 82.7074 72.645 82.5654C72.375 82.2814 72.375 81.8238 72.645 81.5556C72.915 81.2716 73.35 81.2716 73.62 81.5556C73.89 81.8396 73.89 82.2814 73.62 82.5654C73.47 82.7074 73.29 82.7705 73.125 82.7705Z" fill="white"/>
<path d="M67.62 83.2123C66.525 83.2123 65.4449 83.165 64.3949 83.0545C64.0349 83.023 63.675 82.9914 63.3 82.9441C62.925 82.8967 62.6549 82.5496 62.6999 82.1552C62.7449 81.7607 63.0749 81.4925 63.4499 81.5241C63.7949 81.5714 64.14 81.6029 64.5 81.6345C66.54 81.8396 68.7 81.8396 70.725 81.6345C71.1 81.6029 71.43 81.8869 71.475 82.2814C71.505 82.6758 71.2349 83.0229 70.8599 83.0703C69.8099 83.1649 68.715 83.2123 67.62 83.2123Z" fill="white"/>
<path d="M67.62 93.2154C67.47 93.2154 67.335 93.168 67.2 93.0734C66.9 92.8367 66.84 92.3792 67.08 92.0636C68.1 90.6752 68.955 89.1605 69.63 87.5827C70.14 86.3678 70.545 85.1372 70.83 83.9223C70.875 83.7645 70.905 83.6067 70.935 83.449C71.025 83.0072 71.115 82.5812 71.175 82.1394C71.37 80.9245 71.475 79.6623 71.475 78.3843C71.475 77.8794 71.46 77.3903 71.43 76.8854C71.37 75.8441 71.235 74.8343 71.055 73.8718C70.935 73.2565 70.8 72.6569 70.635 72.0732C69.9 69.4067 68.7 66.9296 67.08 64.705C64.635 61.3601 61.38 58.8041 57.645 57.321C55.23 56.3585 52.695 55.8852 50.1 55.8852C44.97 55.8852 39.99 57.8258 36.105 61.3758C36.09 61.3916 36.06 61.4232 36.045 61.4389C35.775 61.7229 35.34 61.7229 35.07 61.4389C34.8 61.1549 34.8 60.7132 35.07 60.4292C35.1 60.3976 35.175 60.3345 35.22 60.3029C39.45 56.5005 44.685 54.4652 50.115 54.4652C52.875 54.4652 55.575 54.9858 58.14 55.9956C62.115 57.5734 65.58 60.2872 68.175 63.8529C69.9 66.2196 71.175 68.8545 71.955 71.6945C72.135 72.3256 72.285 72.9567 72.405 73.6036C72.6 74.6292 72.735 75.702 72.81 76.8065C72.84 77.3272 72.855 77.8636 72.855 78.4001C72.855 79.7569 72.75 81.098 72.54 82.376C72.48 82.8336 72.375 83.3069 72.285 83.7645C72.255 83.938 72.21 84.1116 72.165 84.2852C71.865 85.5632 71.43 86.8885 70.89 88.1665C70.17 89.8547 69.255 91.464 68.175 92.9314C68.025 93.1049 67.83 93.2154 67.62 93.2154Z" fill="white"/>
<path d="M67.62 119.58C67.245 119.58 66.93 119.265 66.93 118.854V92.7263C65.895 91.2905 65.025 89.7285 64.335 88.0876C63.81 86.857 63.39 85.5632 63.075 84.2536C63.045 84.1747 63.015 84.0327 62.985 83.8907C62.865 83.4174 62.7601 82.8809 62.6851 82.3445C62.4751 81.0823 62.37 79.7412 62.37 78.3843C62.37 77.8478 62.385 77.3114 62.415 76.7907C62.49 75.6705 62.625 74.5976 62.82 73.5879C62.955 72.941 63.09 72.2941 63.27 71.663C64.05 68.823 65.325 66.1881 67.05 63.8214C69.615 60.303 73.035 57.6049 76.95 56.0114C79.56 54.9543 82.305 54.4336 85.11 54.4336C90.54 54.4336 95.805 56.4847 99.93 60.2083C100.005 60.2556 100.095 60.3503 100.14 60.4292C100.395 60.729 100.365 61.1707 100.08 61.4389C99.795 61.7072 99.36 61.6756 99.12 61.3758C95.175 57.81 90.225 55.8852 85.11 55.8852C82.47 55.8852 79.89 56.3901 77.43 57.3683C73.755 58.8514 70.53 61.3916 68.13 64.705C66.51 66.9296 65.31 69.4067 64.575 72.0732C64.41 72.6727 64.275 73.2723 64.155 73.8718C63.975 74.8185 63.84 75.8441 63.765 76.8854C63.735 77.3745 63.7201 77.8794 63.7201 78.3843C63.7201 79.6623 63.825 80.9087 64.02 82.1236C64.095 82.6285 64.2 83.1176 64.305 83.591C64.32 83.7014 64.3351 83.7803 64.3651 83.8592C64.6801 85.1529 65.07 86.3678 65.565 87.5196C66.24 89.1289 67.095 90.6436 68.13 92.0636C68.22 92.1898 68.265 92.3476 68.265 92.5054V118.87C68.295 119.249 67.995 119.58 67.62 119.58Z" fill="white"/>
<path d="M67.635 119.58C67.26 119.58 66.945 119.265 66.945 118.854C66.945 118.523 67.155 118.239 67.44 118.16C74.76 115.651 80.25 109.182 81.78 101.262C82.065 99.8105 82.215 98.2959 82.215 96.7654C82.215 94.1936 81.81 91.685 81 89.271C80.055 86.431 78.585 83.8592 76.635 81.6029C76.08 80.956 75.48 80.3407 74.835 79.757C74.55 79.4887 74.5201 79.0469 74.7751 78.7472C75.0301 78.4474 75.465 78.4158 75.735 78.684C76.41 79.2994 77.055 79.9621 77.64 80.6405C79.71 83.023 81.2701 85.7683 82.2751 88.7976C83.1301 91.3536 83.565 94.0359 83.565 96.7654C83.565 98.3905 83.415 99.9998 83.1 101.562C81.48 109.956 75.66 116.835 67.905 119.517C67.83 119.564 67.74 119.58 67.635 119.58Z" fill="white"/>
<path d="M67.62 75.4023C67.545 75.4023 67.485 75.3865 67.41 75.3707C66.87 75.1814 66.3301 75.0236 65.7751 74.8816C65.0251 74.6922 64.2451 74.5503 63.4201 74.4398C61.3951 74.1874 59.2651 74.2347 57.3301 74.5661C56.9701 74.6449 56.61 74.3767 56.55 73.9823C56.49 73.5878 56.73 73.2249 57.105 73.1618C59.175 72.7831 61.4401 72.7358 63.6001 73.0198C64.4701 73.1303 65.31 73.2881 66.105 73.4932C66.69 73.6352 67.2601 73.8087 67.8301 73.998C68.1901 74.1243 68.385 74.5187 68.265 74.8974C68.175 75.2129 67.905 75.4023 67.62 75.4023Z" fill="white"/>
<path d="M67.635 119.58C67.53 119.58 67.4401 119.564 67.3651 119.517C59.5951 116.85 53.775 109.971 52.14 101.562C51.84 99.9998 51.69 98.3905 51.69 96.7654C51.69 94.0516 52.125 91.3694 52.965 88.8292C53.985 85.7841 55.5601 83.0387 57.6151 80.6563C58.2001 79.9778 58.815 79.3625 59.415 78.7787C60.435 77.832 61.575 76.9643 62.76 76.207C63.075 76.0019 63.51 76.1123 63.69 76.4594C63.885 76.8065 63.78 77.2483 63.45 77.4376C62.325 78.1476 61.26 78.9523 60.3 79.8516C59.73 80.3881 59.145 80.9876 58.59 81.6187C56.655 83.8592 55.185 86.4467 54.225 89.3025C53.43 91.7007 53.0251 94.2094 53.0251 96.7654C53.0251 98.2959 53.175 99.8105 53.46 101.262C54.99 109.182 60.495 115.667 67.815 118.16C67.935 118.192 68.0251 118.271 68.1151 118.365C68.2351 118.491 68.3101 118.665 68.3101 118.854C68.3101 119.265 68.01 119.58 67.635 119.58Z" fill="white"/>
<path d="M67.62 75.4023C67.335 75.4023 67.0651 75.213 66.9751 74.8974C66.8551 74.5187 67.065 74.1085 67.425 73.9981C67.995 73.8087 68.5651 73.6352 69.1501 73.4932C69.9451 73.2881 70.7851 73.1303 71.6551 73.0198C73.7551 72.7516 75.945 72.7832 78 73.1303C78.375 73.1934 78.63 73.5563 78.57 73.9507C78.51 74.3452 78.15 74.6134 77.79 74.5503C75.855 74.2347 73.8 74.1874 71.82 74.4398C71.01 74.5503 70.215 74.6923 69.48 74.8816C68.925 75.0236 68.3851 75.1814 67.8451 75.3708C67.7551 75.3865 67.695 75.4023 67.62 75.4023Z" fill="white"/>
<path d="M57.0601 90.0756C55.8451 90.0756 54.66 89.9809 53.505 89.7916C49.305 89.0974 45.375 87.1725 42.135 84.2221C37.155 79.6623 34.29 73.0672 34.29 66.1407C34.29 64.3263 34.485 62.5276 34.86 60.7763C34.86 60.7605 34.86 60.7447 34.875 60.7289C34.905 60.6027 34.965 60.4765 35.055 60.3976L35.385 60.7447H35.565L36.225 60.934C36.225 60.9498 36.21 60.9814 36.21 60.9972C36.21 61.0287 36.21 61.0603 36.195 61.0918C35.835 62.7327 35.655 64.421 35.655 66.1407C35.655 72.657 38.34 78.8576 43.02 83.1334C46.065 85.9103 49.755 87.709 53.7 88.3716C56.445 88.8292 59.43 88.703 62.175 87.993C63.015 87.7721 63.855 87.5038 64.725 87.1567C65.07 87.0147 65.475 87.2041 65.61 87.5669C65.745 87.9298 65.5651 88.3558 65.2201 88.4978C64.2901 88.8765 63.405 89.1605 62.505 89.3972C60.75 89.8389 58.9051 90.0756 57.0601 90.0756Z" fill="white"/>
<path d="M78.045 90.0756C76.245 90.0756 74.475 89.8547 72.75 89.413C71.85 89.1921 70.935 88.8923 70.02 88.5451C69.66 88.4031 69.48 87.9929 69.615 87.6143C69.75 87.2356 70.14 87.0463 70.5 87.1883C71.355 87.5196 72.225 87.8036 73.065 88.0087C75.84 88.7187 78.855 88.8134 81.51 88.34C85.455 87.6616 89.13 85.8314 92.16 83.0545C96.78 78.7787 99.435 72.6096 99.435 66.1407C99.435 64.4525 99.255 62.7642 98.895 61.1234C98.895 61.1076 98.895 61.1076 98.895 61.0918C98.88 61.0603 98.88 61.0129 98.865 60.9814C98.73 60.6185 98.9099 60.2083 99.2549 60.0663C99.6149 59.9243 100.005 60.1294 100.14 60.4923C100.155 60.5238 100.185 60.6343 100.2 60.7132C100.2 60.7447 100.215 60.7763 100.215 60.8078C100.59 62.5434 100.785 64.3421 100.785 66.1407C100.785 73.0198 97.965 79.5834 93.045 84.1432C89.82 87.1094 85.905 89.05 81.72 89.7758C80.565 89.9651 79.32 90.0756 78.045 90.0756Z" fill="white"/>
<path d="M71.385 84.506C71.205 84.506 71.01 84.4272 70.89 84.2694C70.635 83.9854 70.65 83.5279 70.935 83.2596C71.01 83.1965 71.07 83.1334 71.145 83.0703C71.685 82.5812 72.1649 82.0763 72.6299 81.5556C73.3949 80.7036 74.085 79.7885 74.715 78.826C75.78 77.2009 76.62 75.4339 77.25 73.5879C77.31 73.4301 77.415 73.288 77.55 73.2092L99.21 60.2556C99.525 60.0663 99.96 60.1767 100.14 60.5239C100.32 60.871 100.215 61.3127 99.885 61.5021L78.45 74.3294C77.805 76.207 76.92 77.9898 75.855 79.6465C75.18 80.6721 74.445 81.6503 73.635 82.5496C73.125 83.1176 72.615 83.6383 72.075 84.1432L71.865 84.3325C71.715 84.443 71.55 84.506 71.385 84.506Z" fill="white"/>
<path d="M63.75 84.5849C63.645 84.5849 63.525 84.5534 63.42 84.4587C63.405 84.4429 63.285 84.3325 63.27 84.3167C62.64 83.7487 62.04 83.1492 61.455 82.5023C60.705 81.666 59.985 80.7194 59.31 79.7254C58.215 78.0687 57.33 76.2542 56.67 74.3451L35.205 61.5021C34.875 61.3127 34.77 60.8709 34.95 60.5238C35.13 60.1767 35.55 60.0505 35.88 60.2556L57.555 73.2249C57.705 73.3038 57.81 73.4458 57.855 73.6036C58.485 75.4811 59.355 77.264 60.42 78.8891C61.05 79.8358 61.725 80.7194 62.43 81.5083C62.985 82.1236 63.54 82.6916 64.11 83.1965C64.395 83.4489 64.5 83.9538 64.275 84.2536C64.14 84.4745 63.945 84.5849 63.75 84.5849Z" fill="white"/>
<path d="M10.02 119.217C9.91498 119.217 9.79498 119.154 9.73498 119.059C9.62998 118.886 9.67499 118.665 9.83999 118.57L53.43 88.7819C53.58 88.6714 53.805 88.7187 53.895 88.8923C54 89.0658 53.955 89.2867 53.79 89.3814L10.2 119.17C10.155 119.201 10.08 119.217 10.02 119.217Z" fill="white"/>
<path d="M67.62 64.626C67.425 64.626 67.2751 64.4683 67.2751 64.2632V8.58339C67.2751 8.37828 67.425 8.22048 67.62 8.22048C67.815 8.22048 67.965 8.37828 67.965 8.58339V64.2632C67.965 64.4683 67.815 64.626 67.62 64.626Z" fill="white"/>
<path d="M125.22 119.217C125.16 119.217 125.085 119.201 125.04 119.154L81.4351 89.3498C81.2701 89.2394 81.225 89.0185 81.33 88.8607C81.435 88.6872 81.645 88.6556 81.795 88.7503L125.4 118.57C125.565 118.681 125.61 118.902 125.505 119.059C125.445 119.17 125.34 119.217 125.22 119.217Z" fill="white"/>
</g>
</svg>

<svg width="135" height="142" fill="fff" xmlns="http://www.w3.org/2000/svg"><g opacity=".5" fill="#fff"><path d="M71.49 84.806a.678.678 0 01-.645-.474l-.09-.236a36.55 36.55 0 00-3.69-7.163c-.21-.332-.135-.773.165-.994a.665.665 0 01.945.173 36.914 36.914 0 013.225 5.949c.21.473.42.978.6 1.483.03.079.075.189.12.315.135.379-.06.79-.405.915a.972.972 0 01-.225.032zm-32.67 50.552C19.065 135.358 3 118.46 3 97.68 3 78.1 16.95 61.975 35.46 60.177h.045c.045 0 .09-.016.135-.016.375 0 .675.316.675.726 0 .378-.285.694-.63.71h-.09C17.79 63.317 4.35 78.827 4.35 97.68c0 19.991 15.45 36.242 34.455 36.242 11.22 0 21.78-5.79 28.23-15.462.03-.032.06-.079.09-.111.375-.394 1.17-.094 1.17.505a.789.789 0 01-.105.379.457.457 0 01-.075.11c-6.69 10.019-17.64 16.015-29.295 16.015z"/><path d="M96.42 135.358c-11.655 0-22.605-5.996-29.31-16.03-.015-.032-.045-.048-.06-.079a.732.732 0 01-.12-.411c0-.599.795-.899 1.155-.504.03.031.06.078.09.11 6.45 9.688 16.995 15.462 28.23 15.462 18.99 0 34.455-16.251 34.455-36.241 0-18.855-13.44-34.38-31.275-36.084h-.06a.699.699 0 01-.645-.473c-.12-.38.06-.79.42-.915a.984.984 0 01.375-.032c.045 0 .075 0 .105.016 18.51 1.814 32.46 17.923 32.46 37.503 0 20.78-16.065 37.678-35.82 37.678zM63.75 84.695a.708.708 0 01-.18-.031c-.345-.126-.57-.442-.45-.805.03-.094.075-.19.105-.284.165-.473.39-.994.615-1.53a37.97 37.97 0 013.225-5.933.657.657 0 01.945-.173c.3.22.375.678.165.994a37.111 37.111 0 00-3.72 7.21c-.105.316-.405.552-.705.552z"/><path d="M99.57 61.676a.583.583 0 01-.285-.064c-.345-.173-.48-.583-.33-.946l.015-.016a.438.438 0 01.075-.19c2.01-4.685 3.03-9.687 3.03-14.894 0-19.99-15.45-36.241-34.455-36.241S33.165 25.576 33.165 45.567c0 5.19 1.02 10.192 3.03 14.878l.045.095a.724.724 0 01-.12.852.647.647 0 01-.96 0 .7.7 0 01-.12-.174c-.015-.032-.075-.142-.09-.174-2.1-4.89-3.15-10.097-3.15-15.477 0-20.78 16.065-37.678 35.82-37.678s35.82 16.898 35.82 37.677c0 5.444-1.08 10.682-3.195 15.589 0 .016-.015.032-.015.047-.015.032-.015.063-.03.08-.135.236-.375.394-.63.394zm-63.285-1.042zm36.84 22.136a.64.64 0 01-.48-.205.73.73 0 010-1.01.664.664 0 01.975 0 .73.73 0 010 1.01.722.722 0 01-.495.206zm-5.505.442a31.03 31.03 0 01-3.225-.157c-.36-.032-.72-.064-1.095-.11a.704.704 0 01-.6-.79.696.696 0 01.75-.63c.345.046.69.078 1.05.11 2.04.205 4.2.205 6.225 0 .375-.032.705.252.75.646.03.395-.24.742-.615.79-1.05.094-2.145.141-3.24.141z"/><path d="M67.62 93.215a.711.711 0 01-.42-.142.734.734 0 01-.12-1.01 22.59 22.59 0 002.55-4.48 23.17 23.17 0 001.2-3.66c.045-.159.075-.316.105-.474.09-.442.18-.868.24-1.31a23.757 23.757 0 00.255-5.254 23.884 23.884 0 00-.375-3.013 22.74 22.74 0 00-3.975-9.167c-2.445-3.345-5.7-5.9-9.435-7.384a20.264 20.264 0 00-7.545-1.436c-5.13 0-10.11 1.94-13.995 5.49l-.06.064a.664.664 0 01-.975 0 .73.73 0 010-1.01c.03-.031.105-.095.15-.126 4.23-3.802 9.465-5.838 14.895-5.838 2.76 0 5.46.52 8.025 1.53 3.975 1.578 7.44 4.292 10.035 7.858a24.1 24.1 0 013.78 7.842c.18.63.33 1.262.45 1.909a26.96 26.96 0 01.405 3.203c.03.52.045 1.057.045 1.593 0 1.357-.105 2.698-.315 3.976-.06.458-.165.93-.255 1.388-.03.174-.075.348-.12.521a24.438 24.438 0 01-1.275 3.882 23.83 23.83 0 01-2.715 4.764c-.15.174-.345.284-.555.284z"/><path d="M67.62 119.58c-.375 0-.69-.315-.69-.726V92.726a23.546 23.546 0 01-2.595-4.638 24.26 24.26 0 01-1.26-3.834c-.03-.08-.06-.221-.09-.363-.12-.474-.225-1.01-.3-1.547a24.296 24.296 0 01-.315-3.96c0-.536.015-1.073.045-1.593.075-1.12.21-2.193.405-3.203.135-.647.27-1.294.45-1.925a24.1 24.1 0 013.78-7.842c2.565-3.518 5.985-6.216 9.9-7.81a21.622 21.622 0 018.16-1.577c5.43 0 10.695 2.05 14.82 5.774a.72.72 0 01.21.221c.255.3.225.742-.06 1.01a.648.648 0 01-.96-.063c-3.945-3.566-8.895-5.49-14.01-5.49-2.64 0-5.22.504-7.68 1.482-3.675 1.483-6.9 4.024-9.3 7.337a22.74 22.74 0 00-3.975 9.167 26.49 26.49 0 00-.39 3.013 23.557 23.557 0 00.54 6.706c.015.11.03.19.06.268a23.014 23.014 0 001.2 3.66 22.4 22.4 0 002.565 4.545c.09.126.135.284.135.441v26.365c.03.379-.27.71-.645.71z"/><path d="M67.635 119.58c-.375 0-.69-.315-.69-.726 0-.331.21-.615.495-.694 7.32-2.509 12.81-8.978 14.34-16.898.285-1.451.435-2.966.435-4.497 0-2.571-.405-5.08-1.215-7.494a22.548 22.548 0 00-4.365-7.668 20.43 20.43 0 00-1.8-1.846.732.732 0 01-.06-1.01c.255-.3.69-.331.96-.063.675.615 1.32 1.278 1.905 1.957a23.79 23.79 0 014.635 8.157 25.075 25.075 0 011.29 7.967c0 1.626-.15 3.235-.465 4.797-1.62 8.394-7.44 15.273-15.195 17.955a.496.496 0 01-.27.063zm-.015-44.178c-.075 0-.135-.016-.21-.031-.54-.19-1.08-.347-1.635-.49a21.16 21.16 0 00-2.355-.441 21.23 21.23 0 00-6.09.126c-.36.079-.72-.19-.78-.584-.06-.394.18-.757.555-.82 2.07-.379 4.335-.426 6.495-.142.87.11 1.71.268 2.505.473.585.142 1.155.316 1.725.505.36.126.555.52.435.9a.675.675 0 01-.645.504z"/><path d="M67.635 119.58a.496.496 0 01-.27-.063c-7.77-2.667-13.59-9.546-15.225-17.955-.3-1.562-.45-3.171-.45-4.797 0-2.713.435-5.396 1.275-7.936a24.244 24.244 0 014.65-8.173c.585-.678 1.2-1.294 1.8-1.877a23.715 23.715 0 013.345-2.572.651.651 0 01.93.252c.195.347.09.79-.24.979a20.995 20.995 0 00-3.15 2.414 26.332 26.332 0 00-1.71 1.767 22.818 22.818 0 00-4.365 7.683 23.665 23.665 0 00-.765 11.96c1.53 7.92 7.035 14.405 14.355 16.898.12.032.21.111.3.205.12.126.195.3.195.489 0 .411-.3.726-.675.726zm-.015-44.178a.675.675 0 01-.645-.505c-.12-.378.09-.788.45-.899.57-.19 1.14-.363 1.725-.505A21.907 21.907 0 0178 73.13c.375.063.63.426.57.82-.06.395-.42.663-.78.6a21.002 21.002 0 00-5.97-.11 19.537 19.537 0 00-3.975.931c-.09.015-.15.031-.225.031z"/><path d="M57.06 90.076c-1.215 0-2.4-.095-3.555-.284-4.2-.695-8.13-2.62-11.37-5.57-4.98-4.56-7.845-11.155-7.845-18.081 0-1.815.195-3.613.57-5.365 0-.016 0-.031.015-.047a.643.643 0 01.18-.331l.33.347h.18l.66.189c0 .016-.015.047-.015.063 0 .032 0 .063-.015.095a23.52 23.52 0 00-.54 5.049c0 6.516 2.685 12.717 7.365 16.992 3.045 2.777 6.735 4.576 10.68 5.239 2.745.457 5.73.331 8.475-.379.84-.22 1.68-.49 2.55-.836.345-.142.75.047.885.41s-.045.789-.39.93c-.93.38-1.815.663-2.715.9a22.4 22.4 0 01-5.445.679zm20.985 0c-1.8 0-3.57-.221-5.295-.663-.9-.22-1.815-.52-2.73-.868a.73.73 0 01-.405-.93c.135-.38.525-.569.885-.427.855.332 1.725.616 2.565.82 2.775.71 5.79.805 8.445.332 3.945-.678 7.62-2.509 10.65-5.285 4.62-4.276 7.275-10.445 7.275-16.914 0-1.689-.18-3.377-.54-5.018v-.031c-.015-.032-.015-.08-.03-.11a.723.723 0 01.39-.916c.36-.142.75.063.885.426.015.032.045.142.06.221 0 .032.015.063.015.095.375 1.735.57 3.534.57 5.333 0 6.879-2.82 13.442-7.74 18.002-3.225 2.966-7.14 4.907-11.325 5.633-1.155.19-2.4.3-3.675.3z"/><path d="M71.385 84.506a.628.628 0 01-.495-.237.732.732 0 01.045-1.01c.075-.063.135-.126.21-.189.54-.489 1.02-.994 1.485-1.514a22.588 22.588 0 002.085-2.73 23.233 23.233 0 002.535-5.238c.06-.158.165-.3.3-.379l21.66-12.953a.668.668 0 01.93.268c.18.347.075.789-.255.978L78.45 74.33a24.689 24.689 0 01-2.595 5.318 24.236 24.236 0 01-3.78 4.496l-.21.19a.816.816 0 01-.48.173zm-7.635.079a.485.485 0 01-.33-.126c-.015-.016-.135-.127-.15-.142a25.073 25.073 0 01-1.815-1.815 26.37 26.37 0 01-2.145-2.777 23.957 23.957 0 01-2.64-5.38L35.205 61.502c-.33-.19-.435-.631-.255-.978s.6-.474.93-.268l21.675 12.969c.15.079.255.22.3.379.63 1.877 1.5 3.66 2.565 5.285.63.947 1.305 1.83 2.01 2.62a21.37 21.37 0 001.68 1.688c.285.252.39.757.165 1.057-.135.22-.33.33-.525.33zm-53.73 34.632a.357.357 0 01-.285-.158c-.105-.173-.06-.394.105-.489l43.59-29.788a.317.317 0 01.465.11c.105.174.06.395-.105.49L10.2 119.17a.348.348 0 01-.18.047zm57.6-54.591c-.195 0-.345-.158-.345-.363V8.583c0-.205.15-.363.345-.363.195 0 .345.158.345.363v55.68c0 .205-.15.363-.345.363zm57.6 54.591c-.06 0-.135-.016-.18-.063L81.435 89.35a.356.356 0 01-.105-.49.331.331 0 01.465-.11l43.605 29.82c.165.111.21.332.105.489-.06.111-.165.158-.285.158z"/></g></svg>
